/* XPM */
static const char * sinaia_xpm[] = {
/* columns rows colors chars-per-pixel */
"32 32 8 1",
". c None",
"a c #0d2245",
"b c #1b386e",
"c c #33558e",
"d c #5176ac",
"e c #7598c9",
"f c #9dbce4",
"g c #c8e2ff",
/* pixels */
"................................",
"......................a.........",
".....................aa.........",
"....................aga.........",
"...................aggga........",
".................aaggffa........",
"................aggffffa........",
"...............agffffffa........",
"..............afffffffffa.......",
".............affffffffffa.......",
"............afffffffffffa.......",
"...........afffffffffffffa......",
"..........affffffffffffffa......",
".........afffffffffffffffa......",
".......aaffffffffffffffffa......",
"......afffffffffffffffffffa.....",
".....affffffffffffffffffffa.....",
"....afffffffffffffffffffffa.....",
"...afffffffffffffffffffffffa....",
"..aefffffffffffffffffffffffa....",
"..adddeefffffffffffffffffffa....",
"..adddddddeeffffffffffffffffa...",
"..adddddddddddeeffffffffffffa...",
"..addddddddddddddddeefffffffa...",
"...aaaaddddddddddddddddeefffa...",
".......aaaaddddddddddddddddeea..",
"...........aaaaddddddddddddcca..",
"...............aaaaddddddcccca..",
"...................aaaaaccccca..",
"........................aaaaca..",
"............................aa..",
"................................"
};
